!!!OTL: Schinderhannes (3-29), S. 95
!!!id: P1001
**kern
*clefG2
*k[f#]
*G:
{8d
16g
8d
8e
8f#
16g
=1
4g
8.g
16g
8.g
16g
8f#
8e
=2
4e
4d}
4r
=3
{8.d
16f#
=4
4.g
8g
4g
8f#
8e
=5
8.e
16d
4d}
4r
=6
{4g
=7
4f#
8.g
16b
8.a
16f#
8d
16d
16d
=8
8g
8a
4b
4a}
8r
=9
{8b
=10
4dd
16dd
16cc
16a
16g
4b
8.a
16g
=11
2g}
8r
==
*-
!!!minrhy: 16
!!!meters: 4/4 ]  ZZ[4
!!!cut: Schinderhannes (3-29), S. 95
!!!reg: Lothringen
!!!trd: PINCK, Louis: Verklingende Weisen, Bd3, Metz 1933
!!!rhy1: X_(X_X_X_)  X__X_.XX_.XX_X_  X__X__0__
!!!rhy2: X_.X  X__.X_X__X_X_  X_.XX__0__
!!!key: P1001  16  G 4/4 ]  ZZ[4
!!!mod: HEPTATONIK IONISCH]  AMBITUS[8
!!!kad: -5-521
!!!akz: 11-6_11-6_-7212_531_
!!!fot: 'a__av_b__c__
!!!for: 'a__b__c__d__
!!!fok: '^__^__~a_^d_
!! PHRAS[AUFTAKTIG]
!!!fkt: Legende
!! LOTH VKL
!! PR[16] 2K[5] 2G[25] 3K[7] 3G[0] 4A[5] 4Ü[0] 5A[0] 6K[0] 6G[0]
!! 7K[0] 7G[0] 8A[0] MEHR[0] SI[41] ABS[44] SR[30] SP[11]
!! ST[16] 2k[7] 2g[30] 3k[7] 3g[0] 4d[0] 4ü[0] 5d[0] 6k[0] 6g[0]
!! 7k[0] 7g[0] 8d[0] mehr[0] si[43] dm[-2] sr[36] sp[7]
!! 1F[11] 2F[34] 3F[38] 4F[6] LF[0] 2P[2] 3P[9] 4P[0] TRI[0] DF[6] AB[47]
!! TF[0] U3K[0] U3[0] U4[0] U4Ü[0] U5[2] U6K[0] U6[0] U7K[0] U7[0]
!! N1[13] N2K[0] N2[20] N3K[0] N3[27] N4[11] N4Ü[0] N5[22] N6K[0] N6[4]
!!!n7k: 0] N7[0] O1[0] O2K[0] O2[0] O3K[0] O3[0] HÖ[0
